; generated by PrusaSlicer 2.6.1+win64 on 2023-11-24 at 12:58:25 UTC

; 

; external perimeters extrusion width = 2.00mm
; perimeters extrusion width = 2.00mm
; infill extrusion width = 2.00mm
; solid infill extrusion width = 2.00mm
; top infill extrusion width = 2.00mm
; first layer extrusion width = 2.00mm

;TYPE:Custom
G28 ; home all axes
G1 Z5 F5000 ; lift nozzle
G21 ; set units to millimeters
G90 ; use absolute coordinates
; Filament gcode
M107
;LAYER_CHANGE
;Z:0.55
;HEIGHT:0.55
G1 Z.55 F3600
G1 A-2 F2400
G1 X24 Y24 F3600
G1 A0 F2400
;TYPE:External perimeter
;WIDTH:2
G1 F3600
G1 X-24 Y24 A24.71077
G1 X-24 Y-24 A49.42154
G1 X24 Y-24 A74.13231
G1 X24 Y23.76 A98.71953
G1 X22.455 Y23.586
G1 A96.71953 F2400
G1 X22.118 Y22.118 F3600
G1 A98.71953 F2400
;TYPE:Perimeter
G1 F3600
G1 X-22.118 Y22.118 A121.49257
G1 X-22.118 Y-22.118 A144.26561
G1 X22.118 Y-22.118 A167.03865
G1 X22.118 Y21.878 A189.68813
G1 A187.68813 F2400
G1 X20.236 Y20.236 F3600
G1 A189.68813 F2400
G1 F3600
G1 X-20.236 Y20.236 A210.52343
G1 X-20.236 Y-20.236 A231.35873
G1 X20.236 Y-20.236 A252.19403
G1 X20.236 Y19.996 A272.90578
G1 A270.90578 F2400
G1 X3.716 Y-4.441 F3600
G1 A272.90578 F2400
;TYPE:External perimeter
G1 F3600
G1 X3.961 Y-4.25 A273.06571
G1 X4.408 Y-3.789 A273.39628
G1 X4.778 Y-3.313 A273.70665
G1 X5.099 Y-2.802 A274.01732
G1 X5.54 Y-1.807 A274.57761
G1 X5.717 Y-1.189 A274.90855
G1 X5.82 Y-.594 A275.21942
G1 X5.85 Y.493 A275.77923
G1 X5.779 Y1.133 A276.11073
G1 X5.649 Y1.721 A276.42075
G1 X5.46 Y2.293 A276.73088
G1 X5.214 Y2.844 A277.04153
G1 X4.633 Y3.765 A277.60213
G1 X4.218 Y4.257 A277.93349
G1 X3.782 Y4.672 A278.24337
G1 X3.307 Y5.043 A278.55365
G1 X2.796 Y5.363 A278.86404
G1 X2.256 Y5.631 A279.17439
G1 X1.222 Y5.97 A279.73458
G1 X.589 Y6.084 A280.0657
G1 X-.012 Y6.127 A280.37589
G1 X-.615 Y6.109 A280.68646
G1 X-1.688 Y5.921 A281.24726
G1 X-2.3 Y5.724 A281.57824
G1 X-2.85 Y5.479 A281.88821
G1 X-3.373 Y5.18 A282.19835
G1 X-4.231 Y4.509 A282.75909
G1 X-4.678 Y4.047 A283.09003
G1 X-5.049 Y3.571 A283.40072
G1 X-5.37 Y3.061 A283.71095
G1 X-5.811 Y2.066 A284.27124
G1 X-5.988 Y1.447 A284.60268
G1 X-6.091 Y.853 A284.91304
G1 X-6.121 Y-.234 A285.47285
G1 X-6.05 Y-.874 A285.80435
G1 X-5.919 Y-1.463 A286.11498
G1 X-5.73 Y-2.035 A286.42511
G1 X-5.485 Y-2.586 A286.73555
G1 X-5.186 Y-3.109 A287.04569
G1 X-4.835 Y-3.599 A287.35599
G1 X-4.437 Y-4.052 A287.66642
G1 X-3.996 Y-4.463 A287.97676
G1 X-3.515 Y-4.827 A288.28729
G1 X-2.563 Y-5.354 A288.84747
G1 X-1.963 Y-5.585 A289.17846
G1 X-1.38 Y-5.739 A289.48889
G1 X-.299 Y-5.865 A290.04916
G1 X.344 Y-5.851 A290.38026
G1 X1.417 Y-5.663 A290.94106
G1 X2.029 Y-5.466 A291.27204
G1 X2.58 Y-5.22 A291.58269
G1 X3.102 Y-4.921 A291.89238
G1 X3.527 Y-4.589 A292.17002
G1 X4.001 Y-4.563
G1 A290.17002 F2400
G1 X5.275 Y-5.581 F3600
G1 A292.17002 F2400
;TYPE:Perimeter
G1 F3600
G1 X5.78 Y-5.077 A292.53732
G1 X6.272 Y-4.457 A292.94479
G1 X6.7 Y-3.791 A293.35235
G1 X7.267 Y-2.555 A294.05241
G1 X7.534 Y-1.679 A294.52386
G1 X7.677 Y-.9 A294.9316
G1 X7.732 Y.458 A295.63128
G1 X7.646 Y1.369 A296.10235
G1 X7.483 Y2.143 A296.50955
G1 X7.242 Y2.897 A296.91706
G1 X6.927 Y3.624 A297.32495
G1 X6.216 Y4.783 A298.02494
G1 X5.637 Y5.493 A298.49658
G1 X5.071 Y6.044 A298.90323
G1 X4.451 Y6.537 A299.31102
G1 X3.784 Y6.965 A299.71901
G1 X3.079 Y7.323 A300.12606
G1 X1.792 Y7.764 A300.82644
G1 X.895 Y7.941 A301.29713
G1 X.106 Y8.005 A301.70465
G1 X-.686 Y7.99 A302.11245
G1 X-2.029 Y7.772 A302.81289
G1 X-2.904 Y7.507 A303.28355
G1 X-3.63 Y7.191 A303.69117
G1 X-4.321 Y6.805 A304.09864
G1 X-5.404 Y5.981 A304.79921
G1 X-6.05 Y5.335 A305.26953
G1 X-6.543 Y4.715 A305.67732
G1 X-6.971 Y4.049 A306.08488
G1 X-7.538 Y2.813 A306.78494
G1 X-7.805 Y1.938 A307.2559
G1 X-7.948 Y1.159 A307.66364
G1 X-8.003 Y-.199 A308.36332
G1 X-7.917 Y-1.11 A308.83439
G1 X-7.753 Y-1.885 A309.2422
G1 X-7.513 Y-2.64 A309.65005
G1 X-7.198 Y-3.366 A310.05746
G1 X-6.812 Y-4.057 A310.46493
G1 X-6.358 Y-4.705 A310.87225
G1 X-5.841 Y-5.306 A311.28038
G1 X-5.267 Y-5.851 A311.68786
G1 X-4.641 Y-6.336 A312.09553
G1 X-3.459 Y-7.009 A312.79575
G1 X-2.612 Y-7.351 A313.266
G1 X-1.848 Y-7.562 A313.67404
G1 X-.499 Y-7.736 A314.37427
G1 X.415 Y-7.731 A314.84481
G1 X1.758 Y-7.514 A315.54516
G1 X2.633 Y-7.248 A316.01597
G1 X3.359 Y-6.933 A316.42338
G1 X4.05 Y-6.547 A316.83085
G1 X5.102 Y-5.746 A317.51155
G1 X6.474 Y-7.043
G1 X6.727 Y-6.815 A317.68688
G1 X7.151 Y-6.365 A318.00518
G1 X7.766 Y-5.601 A318.51009
G1 X8.302 Y-4.779 A319.01528
G1 X8.616 Y-4.177 A319.36482
G1 X8.994 Y-3.302 A319.85551
G1 X9.218 Y-2.661 A320.20507
G1 X9.351 Y-2.17 A320.46695
G1 X9.534 Y-1.206 A320.97209
G1 X9.595 Y-.53 A321.32151
G1 X9.613 Y.423 A321.81221
G1 X9.577 Y1.101 A322.16174
G1 X9.513 Y1.605 A322.42329
G1 X9.317 Y2.565 A322.9277
G1 X9.025 Y3.501 A323.43246
G1 X8.64 Y4.404 A323.93782
G1 X8.314 Y5 A324.28755
G1 X7.799 Y5.802 A324.77822
G1 X7.391 Y6.345 A325.12788
G1 X7.057 Y6.728 A325.38949
G1 X6.359 Y7.416 A325.89404
G1 X5.595 Y8.031 A326.39895
G1 X4.773 Y8.566 A326.90386
G1 X3.902 Y9.016 A327.40857
G1 X3.271 Y9.268 A327.75836
G1 X2.362 Y9.557 A328.2494
G1 X1.749 Y9.708 A328.57441
G1 X1.201 Y9.798 A328.8603
G1 X.224 Y9.883 A329.36517
G1 X-.757 Y9.87 A329.87024
G1 X-1.393 Y9.803 A330.19947
G1 X-2.37 Y9.623 A330.7109
G1 X-3.028 Y9.452 A331.0609
G1 X-3.508 Y9.289 A331.32187
G1 X-4.41 Y8.904 A331.82676
G1 X-5.269 Y8.431 A332.33159
G1 X-5.83 Y8.048 A332.68128
G1 X-6.576 Y7.454 A333.1722
G1 X-6.996 Y7.075 A333.46344
G1 X-7.422 Y6.624 A333.78282
G1 X-8.037 Y5.86 A334.28773
G1 X-8.573 Y5.037 A334.79335
G1 X-8.887 Y4.435 A335.14289
G1 X-9.265 Y3.56 A335.63358
G1 X-9.489 Y2.919 A335.98314
G1 X-9.622 Y2.428 A336.24502
G1 X-9.805 Y1.465 A336.74965
G1 X-9.866 Y.788 A337.09959
G1 X-9.884 Y-.164 A337.58977
G1 X-9.848 Y-.842 A337.9393
G1 X-9.784 Y-1.346 A338.20085
G1 X-9.587 Y-2.307 A338.70587
G1 X-9.295 Y-3.244 A339.21113
G1 X-8.91 Y-4.146 A339.71602
G1 X-8.437 Y-5.004 A340.2204
G1 X-7.88 Y-5.812 A340.72562
G1 X-7.245 Y-6.559 A341.23035
G1 X-6.538 Y-7.239 A341.73535
G1 X-5.766 Y-7.844 A342.24028
G1 X-5.193 Y-8.21 A342.59031
G1 X-4.356 Y-8.664 A343.08051
G1 X-3.737 Y-8.943 A343.43005
G1 X-3.26 Y-9.118 A343.69162
G1 X-2.316 Y-9.385 A344.19666
G1 X-1.647 Y-9.506 A344.54665
G1 X-.7 Y-9.608 A345.03699
G1 X-.198 Y-9.634 A345.29577
G1 X.486 Y-9.612 A345.64808
G1 X1.122 Y-9.545 A345.97731
G1 X2.099 Y-9.365 A346.48874
G1 X2.757 Y-9.193 A346.83887
G1 X3.237 Y-9.031 A347.09967
G1 X4.139 Y-8.646 A347.60456
G1 X4.998 Y-8.173 A348.10939
G1 X5.559 Y-7.789 A348.45937
G1 X6.295 Y-7.203 A348.9437
G1 A346.9437 F2400
G1 X18.825 Y-12.348 F3600
G1 A348.9437 F2400
;TYPE:Solid infill
G1 F3600
G1 X18.825 Y-18.825 A352.27811
G1 X-18.825 Y-18.825 A371.66062
G1 X-18.825 Y18.825 A391.04313
G1 X18.825 Y18.825 A410.42564
G1 X18.825 Y-12.108 A426.35019
G1 A424.35019 F2400
G1 X9.214 Y-5.986 F3600
G1 A426.35019 F2400
G1 F3600
G1 X9.743 Y-5.088 A426.88674
G1 X10.283 Y-3.877 A427.56935
G1 X10.465 Y-3.403 A427.83074
G1 X10.706 Y-2.564 A428.28013
G1 X10.836 Y-1.976 A428.59015
G1 X10.985 Y-.942 A429.12796
G1 X11.024 Y.38 A429.80883
G1 X10.983 Y1.217 A430.24024
G1 X10.875 Y2.038 A430.66654
G1 X10.697 Y2.861 A431.10002
G1 X10.373 Y3.919 A431.66965
G1 X10.15 Y4.49 A431.98523
G1 X9.749 Y5.339 A432.4686
G1 X8.994 Y6.552 A433.20414
G1 X8.494 Y7.223 A433.63493
G1 X7.894 Y7.901 A434.10102
G1 X7.28 Y8.484 A434.5369
G1 X6.406 Y9.185 A435.11369
G1 X5.545 Y9.748 A435.64329
G1 X5.01 Y10.045 A435.95831
G1 X4.064 Y10.482 A436.49477
G1 X2.805 Y10.897 A437.17722
G1 X2.05 Y11.086 A437.57789
G1 X1.443 Y11.189 A437.89485
G1 X.859 Y11.256 A438.19747
G1 X-.025 Y11.303 A438.6532
G1 X-1.193 Y11.252 A439.25507
G1 X-2.61 Y11.014 A439.99477
G1 X-3.11 Y10.9 A440.25878
G1 X-4.015 Y10.605 A440.74881
G1 X-4.961 Y10.204 A441.27777
G1 X-5.506 Y9.925 A441.59297
G1 X-6.402 Y9.378 A442.1334
G1 X-7.438 Y8.571 A442.80946
G1 X-7.967 Y8.099 A443.17444
G1 X-8.489 Y7.545 A443.5663
G1 X-9.135 Y6.747 A444.09485
G1 X-9.485 Y6.244 A444.41032
G1 X-10.014 Y5.346 A444.94687
G1 X-10.554 Y4.135 A445.62948
G1 X-10.832 Y3.349 A446.05868
G1 X-11.092 Y2.311 A446.60956
G1 X-11.256 Y1.2 A447.18771
G1 X-11.295 Y-.121 A447.86807
G1 X-11.283 Y-.632 A448.13121
G1 X-11.175 Y-1.58 A448.6224
G1 X-10.971 Y-2.588 A449.15185
G1 X-10.643 Y-3.662 A449.72996
G1 X-10.21 Y-4.697 A450.30754
G1 X-9.675 Y-5.683 A450.88505
G1 X-9.044 Y-6.611 A451.46277
G1 X-8.662 Y-7.09 A451.77818
G1 X-8.017 Y-7.791 A452.26858
G1 X-7.221 Y-8.51 A452.82079
G1 X-6.295 Y-9.193 A453.41315
G1 X-5.851 Y-9.459 A453.67961
G1 X-4.685 Y-10.074 A454.35825
G1 X-3.768 Y-10.435 A454.86559
G1 X-2.7 Y-10.743 A455.43781
G1 X-1.859 Y-10.9 A455.87824
G1 X-.341 Y-11.041 A456.66308
G1 X1.033 Y-10.982 A457.37108
G1 X2.339 Y-10.755 A458.0535
G1 X2.839 Y-10.641 A458.31751
G1 X3.665 Y-10.376 A458.76409
G1 X4.691 Y-9.945 A459.33699
G1 X5.235 Y-9.667 A459.6515
G1 X6.04 Y-9.182 A460.13532
G1 X7.167 Y-8.313 A460.86796
G1 X7.697 Y-7.839 A461.23401
G1 X8.356 Y-7.135 A461.73045
G1 X8.876 Y-6.474 A462.16342
G1 X9.077 Y-6.183 A462.34549
G1 A460.34549 F2400
G1 X16.943 Y-12.348 F3600
G1 A462.34549 F2400
G1 F3600
G1 X16.943 Y-16.943 A464.71103
G1 X-16.943 Y-16.943 A482.15581
G1 X-16.943 Y16.943 A499.60059
G1 X16.943 Y16.943 A517.04537
G1 X16.943 Y-12.108 A532.00105
G1 A530.00105 F2400
G1 X10.359 Y-7.632 F3600
G1 A532.00105 F2400
G1 F3600
G1 X10.764 Y-7.053 A532.36481
G1 X11.309 Y-6.149 A532.90823
G1 X11.462 Y-5.854 A533.07931
G1 X12.002 Y-4.644 A533.76144
G1 X12.19 Y-4.17 A534.02395
G1 X12.515 Y-3.084 A534.60753
G1 X12.675 Y-2.375 A534.98171
G1 X12.837 Y-1.328 A535.52713
G1 X12.866 Y-.997 A535.69818
G1 X12.905 Y.324 A536.37854
G1 X12.862 Y1.317 A536.89022
G1 X12.74 Y2.29 A537.39505
G1 X12.535 Y3.266 A537.90847
G1 X12.171 Y4.476 A538.55896
G1 X11.9 Y5.182 A538.94827
G1 X11.449 Y6.147 A539.49664
G1 X11.289 Y6.437 A539.66715
G1 X10.587 Y7.553 A540.34589
G1 X9.999 Y8.353 A540.85702
G1 X9.297 Y9.154 A541.40533
G1 X8.633 Y9.798 A541.88153
G1 X7.665 Y10.592 A542.52606
G1 X6.576 Y11.323 A543.20128
G1 X5.917 Y11.694 A543.59061
G1 X4.962 Y12.147 A544.13476
G1 X4.654 Y12.269 A544.30531
G1 X3.395 Y12.684 A544.98776
G1 X2.499 Y12.913 A545.46385
G1 X1.75 Y13.046 A545.85547
G1 X1.071 Y13.126 A546.20744
G1 X-.206 Y13.183 A546.8655
G1 X-1.282 Y13.132 A547.42006
G1 X-1.631 Y13.093 A547.60085
G1 X-2.931 Y12.868 A548.28005
G1 X-3.434 Y12.76 A548.5449
G1 X-4.512 Y12.426 A549.12589
G1 X-5.696 Y11.937 A549.78536
G1 X-6.371 Y11.597 A550.17445
G1 X-7.285 Y11.051 A550.72255
G1 X-7.559 Y10.863 A550.89362
G1 X-8.594 Y10.056 A551.56927
G1 X-9.225 Y9.498 A552.00291
G1 X-9.811 Y8.891 A552.43726
G1 X-10.599 Y7.93 A553.07705
G1 X-11.035 Y7.312 A553.46641
G1 X-11.58 Y6.407 A554.01027
G1 X-11.733 Y6.112 A554.18135
G1 X-12.273 Y4.902 A554.86348
G1 X-12.609 Y3.97 A555.37351
G1 X-12.92 Y2.76 A556.01667
G1 X-13.107 Y1.589 A556.62715
G1 X-13.137 Y1.255 A556.79979
G1 X-13.176 Y-.065 A557.47963
G1 X-13.17 Y-.578 A557.74374
G1 X-13.058 Y-1.703 A558.32576
G1 X-12.815 Y-2.961 A558.98536
G1 X-12.441 Y-4.218 A559.66051
G1 X-11.943 Y-5.432 A560.33603
G1 X-11.326 Y-6.587 A561.01016
G1 X-10.595 Y-7.676 A561.68538
G1 X-10.127 Y-8.271 A562.07509
G1 X-9.4 Y-9.068 A562.63045
G1 X-8.558 Y-9.845 A563.22028
G1 X-8.337 Y-10.026 A563.36734
G1 X-7.411 Y-10.708 A563.95939
G1 X-6.729 Y-11.123 A564.37038
G1 X-5.564 Y-11.738 A565.04857
G1 X-4.446 Y-12.191 A565.66958
G1 X-4.204 Y-12.272 A565.80096
G1 X-3.216 Y-12.553 A566.32976
G1 X-1.962 Y-12.784 A566.98619
G1 X-.646 Y-12.911 A567.66682
G1 X-.271 Y-12.922 A567.85996
G1 X.977 Y-12.876 A568.50288
G1 X1.354 Y-12.836 A568.69805
G1 X2.66 Y-12.61 A569.38038
G1 X3.163 Y-12.501 A569.64534
G1 X4.241 Y-12.167 A570.22633
G1 X5.425 Y-11.678 A570.8858
G1 X6.1 Y-11.338 A571.27489
G1 X7.014 Y-10.792 A571.82299
G1 X7.287 Y-10.604 A571.99363
G1 X8.323 Y-9.798 A572.66937
G1 X8.956 Y-9.238 A573.10446
G1 X9.735 Y-8.415 A573.68785
G1 X10.21 Y-7.819 A574.0802
G1 A572.0802 F2400
G1 X-2.544 Y-14.833 F3600
G1 A574.0802 F2400
;WIDTH:2.45548
G1 F3600
G1 X-2.353 Y-14.846 A574.20261
;WIDTH:2.42967
G1 X-2.162 Y-14.859 A574.32367
;WIDTH:2.40386
G1 X-1.721 Y-14.88 A574.59973
;WIDTH:2.36155
G1 X-1.28 Y-14.901 A574.87068
;WIDTH:2.31924
G1 X-.84 Y-14.922 A575.13592
;WIDTH:2.27694
G1 X-.196 Y-14.932 A575.51629
;WIDTH:2.30455
G1 X1.053 Y-14.908 A576.26348
;WIDTH:2.33875
G1 X1.38 Y-14.891 A576.46239
;WIDTH:2.37295
G1 X1.707 Y-14.874 A576.66436
;WIDTH:2.41967
G1 X1.978 Y-14.851 A576.8356
;WIDTH:2.4664
G1 X2.25 Y-14.827 A577.01101
;WIDTH:2.51312
G1 X2.522 Y-14.804 A577.18985
;WIDTH:2.55985
G1 X2.794 Y-14.781 A577.37218
G1 A575.37218 F2400
G1 X-14.936 Y2.92 F3600
G1 A577.37218 F2400
;WIDTH:2.24989
G1 F3600
G1 X-14.955 Y2.659 A577.52479
;WIDTH:2.21062
G1 X-14.975 Y2.398 A577.67463
;WIDTH:2.17134
G1 X-14.995 Y2.136 A577.82222
;WIDTH:2.13207
G1 X-15.014 Y1.875 A577.96639
;WIDTH:2.09279
G1 X-15.027 Y1.593 A578.11889
;WIDTH:2.06768
G1 X-15.039 Y1.312 A578.26889
;WIDTH:2.04256
G1 X-15.059 Y-.009 A578.96441
;WIDTH:2.00863
G1 X-15.056 Y-.611 A579.27575
;WIDTH:2.04974
G1 X-15.036 Y-1.046 A579.50585
;WIDTH:2.09086
G1 X-15.015 Y-1.481 A579.74088
;WIDTH:2.13197
G1 X-14.995 Y-1.916 A579.98078
;WIDTH:2.16153
G1 X-14.98 Y-2.107 A580.08788
G1 A578.08788 F2400
G1 X2.661 Y14.932 F3600
G1 A580.08788 F2400
;WIDTH:2.25668
G1 F3600
G1 X2.365 Y14.957 A580.26166
;WIDTH:2.208
G1 X2.07 Y14.981 A580.43087
;WIDTH:2.15933
G1 X1.678 Y15.005 A580.65017
;WIDTH:2.11193
G1 X1.287 Y15.028 A580.8638
;WIDTH:2.06453
G1 X.725 Y15.045 A581.16318
;WIDTH:2.03171
G1 X.163 Y15.061 A581.4575
;WIDTH:1.99889
G1 X-.294 Y15.062 A581.69263
;WIDTH:2.02372
G1 X-.833 Y15.049 A581.97369
;WIDTH:2.04918
G1 X-1.372 Y15.036 A582.25851
;WIDTH:2.08147
G1 X-1.667 Y15.02 A582.41719
;WIDTH:2.11376
G1 X-1.961 Y15.004 A582.57793
;WIDTH:2.16023
G1 X-2.232 Y14.981 A582.72987
;WIDTH:2.2067
G1 X-2.502 Y14.957 A582.88474
;WIDTH:2.25317
G1 X-2.772 Y14.934 A583.04301
;WIDTH:2.29963
G1 X-3.043 Y14.911 A583.20532
G1 A581.20532 F2400
G1 X14.814 Y-2.503 F3600
G1 A583.20532 F2400
;WIDTH:2.49293
G1 F3600
G1 X14.836 Y-2.212 A583.39491
;WIDTH:2.45003
G1 X14.857 Y-1.922 A583.58039
;WIDTH:2.40713
G1 X14.879 Y-1.631 A583.76313
;WIDTH:2.36423
G1 X14.891 Y-1.344 A583.93963
;WIDTH:2.33885
G1 X14.904 Y-1.058 A584.11355
;WIDTH:2.31346
G1 X14.923 Y.264 A584.90757
;WIDTH:2.31979
G1 X14.901 Y1.427 A585.60815
;WIDTH:2.364
G1 X14.879 Y1.794 A585.83403
;WIDTH:2.40822
G1 X14.857 Y2.161 A586.06436
;WIDTH:2.45244
G1 X14.834 Y2.528 A586.29918
G1 A584.29918 F2400
G1 X14.814 Y-2.503 F3600
G1 A586.29918 F2400
;WIDTH:2.49293
G1 F3600
G1 X14.837 Y-2.648 A586.39456
;WIDTH:2.44807
G1 X14.859 Y-2.793 A586.48804
;WIDTH:2.40321
G1 X14.881 Y-2.938 A586.57972
;WIDTH:2.35835
G1 X14.904 Y-3.083 A586.66969
;WIDTH:2.31348
G1 X14.926 Y-3.227 A586.75717
;WIDTH:2.26862
G1 X14.949 Y-3.372 A586.84354
;WIDTH:2.22376
G1 X14.971 Y-3.614 A586.98351
;WIDTH:2.17901
G1 X14.994 Y-3.856 A587.12056
;WIDTH:2.13426
G1 X15.016 Y-4.097 A587.25403
;WIDTH:2.0895
G1 X15.038 Y-4.339 A587.38508
;WIDTH:2.04475
G1 X15.061 Y-4.58 A587.51268
;WIDTH:2
G1 X15.061 Y-15.061 A592.90838
G1 X4.99 Y-15.061 A598.09301
;WIDTH:2.04725
G1 X4.773 Y-15.037 A598.20823
;WIDTH:2.0945
G1 X4.556 Y-15.013 A598.32627
;WIDTH:2.14175
G1 X4.339 Y-14.99 A598.44707
;WIDTH:2.189
G1 X4.122 Y-14.966 A598.57075
;WIDTH:2.23512
G1 X4 Y-14.943 A598.64265
;WIDTH:2.28123
G1 X3.878 Y-14.92 A598.71611
;WIDTH:2.32735
G1 X3.757 Y-14.897 A598.79055
;WIDTH:2.37347
G1 X3.635 Y-14.874 A598.86715
;WIDTH:2.41959
G1 X3.513 Y-14.851 A598.94531
;WIDTH:2.46571
G1 X3.391 Y-14.828 A599.02504
;WIDTH:2.51182
G1 X3.269 Y-14.805 A599.10633
;WIDTH:2.55639
G1 X3.151 Y-14.782 A599.18652
;WIDTH:2.60096
G1 X3.033 Y-14.76 A599.26805
G1 X3.149 Y-14.712 A599.35332
;WIDTH:2.55429
G1 X3.264 Y-14.663 A599.43663
;WIDTH:2.50763
G1 X3.38 Y-14.615 A599.51869
;WIDTH:2.46096
G1 X3.496 Y-14.566 A599.5994
;WIDTH:2.41429
G1 X3.611 Y-14.518 A599.67768
;WIDTH:2.36763
G1 X3.762 Y-14.448 A599.7801
;WIDTH:2.32167
G1 X3.913 Y-14.378 A599.88043
;WIDTH:2.27572
G1 X4.063 Y-14.308 A599.97813
;WIDTH:2.22977
G1 X4.214 Y-14.238 A600.07427
;WIDTH:2.18381
G1 X4.365 Y-14.169 A600.16809
;WIDTH:2.13786
G1 X4.516 Y-14.099 A600.26005
;WIDTH:2.09191
